X: 6036
T: Cape Breton
R: jig
M: 6/8
K: Dmajor
|:B/c/|dcd A^GA|FEF D3|G2 B e2 d|cea gfe|
d3 A3|FEF D3|GEe cBc|d3 d2:|
|:c/d/|e2 c Ace|f2 d Adf|g2 e f2 d|ecA AB/c/d|
[1 ecA Ace|fdA Ad/e/f|efd cdB|A3 Acd:|
[2 dAF GBe|cBc dfa|fef gBc|d3 d2||

